build/img/form-bg.svg

<svg width="1745" height="765" fill="none" xmlns="http://www.w3.org/2000/svg"><path opacity=".2" d="M1821.26 509.5l-278.25 160.648V348.852L1821.26 509.5zm-352.35-254.364l174.34-100.656v201.313l-174.34-100.657zm-842.068-95.552l-274.675 475.75-274.675-475.75h549.35z" stroke="#fff"/><path opacity=".2" d="M347.148 357.75L186.5 636 25.852 357.75h321.296z" stroke="#fff"/><circle cx="77" cy="159" r="5" fill="#fff"/><circle cx="26" cy="358" r="5" fill="#fff"/><circle cx="187" cy="636" r="5" fill="#fff"/><circle cx="352" cy="635" r="5" fill="#fff"/><circle cx="627" cy="159" r="5" fill="#fff"/></svg>

<svg width="1745" height="765" viewBox="0 0 1745 765" fill="none" xmlns="http://www.w3.org/2000/svg">
<path opacity="0.2" d="M1821.26 509.5L1543.01 670.148L1543.01 348.852L1821.26 509.5Z" stroke="white"/>
<path opacity="0.2" d="M1468.91 255.136L1643.25 154.48L1643.25 355.793L1468.91 255.136Z" stroke="white"/>
<path opacity="0.2" d="M626.842 159.584L352.167 635.334L77.4923 159.584L626.842 159.584Z" stroke="white"/>
<path opacity="0.2" d="M347.148 357.75L186.5 636L25.8523 357.75L347.148 357.75Z" stroke="white"/>
<circle cx="77" cy="159" r="5" fill="white"/>
<circle cx="26" cy="358" r="5" fill="white"/>
<circle cx="187" cy="636" r="5" fill="white"/>
<circle cx="352" cy="635" r="5" fill="white"/>
<circle cx="627" cy="159" r="5" fill="white"/>
</svg>
